X: 9
T: High, The
Z: Thierry Masure
S: https://thesession.org/tunes/44#setting48855
R: reel
M: 4/4
L: 1/8
K: Amix
|:a2fa eAAB|cAeA fAeA|a2fa eAAc|Bcdc BGG2|
a2fa eA (3AAA|cdef g2fg|afge fdec|Bcdc BGG2:|
|:(3cBA eA fAeA|(3cBA af eAA2|(3cBA eA fAec|Bcdc BGG2|
(3cBA eA fAeA|(3Bcd ef g2fg|afge fdec|Bcdc BGG2:|

